X: 1
T: Green Fields Of Canada
R: barndance
M: 4/4
L: 1/8
K: Dmix
|A2|:c4 A2 B/A/G|A6 AG|d3c d3A|G3F/D/ DE|
=F3G A2 B/A/G|G6 AG|FD D2 D4|D4 D2||
|:A3G Ad3|d6 e2|=f3e d2 d2|ded>c A4|
G3A d3e|=f3e d3c |AGAc d4| de d3^c AG |
A6 Ad |d3c d3A |G3F/D/ D3E| =F3G A2 B/A/G |
G6 AG |FD D4|D4 D4|D4 D4||

